dist/img/icons/about/2.svg

<svg width="44" height="44" viewBox="0 0 44 44" fill="none" xmlns="http://www.w3.org/2000/svg">
<g clip-path="url(#clip0)">
<path d="M32.0833 44.0003C25.5126 44.0003 20.1666 38.6543 20.1666 32.0837C20.1666 25.513 25.5126 20.167 32.0833 20.167C38.6539 20.167 43.9999 25.513 43.9999 32.0837C43.9999 38.6543 38.6539 44.0003 32.0833 44.0003ZM32.0833 22.0003C26.5228 22.0003 22 26.525 22 32.0837C22 37.6423 26.5228 42.167 32.0833 42.167C37.6438 42.167 42.1666 37.6423 42.1666 32.0837C42.1666 26.525 37.6438 22.0003 32.0833 22.0003Z" fill="white"/>
<path d="M30.2499 36.6667C30.0079 36.6667 29.7733 36.5695 29.6009 36.399L25.9343 32.7323C25.5768 32.3748 25.5768 31.7937 25.9343 31.4362C26.2918 31.0787 26.8729 31.0787 27.2304 31.4362L30.2041 34.4098L35.9754 27.8135C36.3091 27.4285 36.8884 27.3937 37.2698 27.7273C37.6511 28.061 37.6896 28.6385 37.3559 29.0199L30.9393 36.3532C30.7724 36.5439 30.5323 36.6575 30.2793 36.6667C30.2701 36.6667 30.2591 36.6667 30.2499 36.6667Z" fill="white"/>
<path d="M17.4167 36.6663H4.58337C3.06721 36.6663 1.83337 35.4325 1.83337 33.9163V13.7497C1.83337 13.2437 2.24404 12.833 2.75004 12.833H33.9167C34.4227 12.833 34.8334 13.2437 34.8334 13.7497V17.5263C34.8334 18.0323 34.4227 18.443 33.9167 18.443C33.4107 18.443 33 18.0323 33 17.5263V14.6663H3.66671V33.9163C3.66671 34.4205 4.07737 34.833 4.58337 34.833H17.4167C17.9227 34.833 18.3334 35.2437 18.3334 35.7497C18.3334 36.2557 17.9227 36.6663 17.4167 36.6663Z" fill="white"/>
<path d="M22.9167 20.1663H13.75C13.244 20.1663 12.8334 19.7557 12.8334 19.2497C12.8334 18.7437 13.244 18.333 13.75 18.333H22.9167C23.4227 18.333 23.8334 18.7437 23.8334 19.2497C23.8334 19.7557 23.4227 20.1663 22.9167 20.1663Z" fill="white"/>
<path d="M35.75 14.6667H0.916667C0.410667 14.6667 0 14.256 0 13.75V6.41667C0 5.91067 0.410667 5.5 0.916667 5.5H35.75C36.256 5.5 36.6667 5.91067 36.6667 6.41667V13.75C36.6667 14.256 36.256 14.6667 35.75 14.6667ZM1.83333 12.8333H34.8333V7.33333H1.83333V12.8333Z" fill="white"/>
<path d="M35.7498 7.33333C35.5152 7.33333 35.2805 7.2435 35.1008 7.06567L29.8703 1.83333H6.79601L1.56551 7.06567C1.20801 7.42317 0.626846 7.42317 0.269346 7.06567C-0.0881543 6.70817 -0.0881543 6.127 0.269346 5.7695L5.76935 0.2695C5.93985 0.0971667 6.17268 0 6.41651 0H30.2498C30.4937 0 30.7265 0.0971667 30.8988 0.267667L36.3988 5.76767C36.7563 6.12517 36.7563 6.70633 36.3988 7.06383C36.2192 7.2435 35.9845 7.33333 35.7498 7.33333Z" fill="white"/>
</g>
<defs>
<clipPath id="clip0">
<rect width="44" height="44" fill="white"/>
</clipPath>
</defs>
</svg>

<svg width="44" height="44" fill="none" xmlns="http://www.w3.org/2000/svg"><g clip-path="url(#clip0)" fill="#fff"><path d="M32.083 44c-6.57 0-11.916-5.346-11.916-11.916 0-6.571 5.346-11.917 11.916-11.917S44 25.513 44 32.084C44 38.654 38.654 44 32.083 44zm0-22C26.523 22 22 26.525 22 32.084c0 5.558 4.523 10.083 10.083 10.083 5.56 0 10.084-4.525 10.084-10.083C42.167 26.525 37.644 22 32.083 22z"/><path d="M30.25 36.667a.927.927 0 01-.65-.268l-3.666-3.667a.917.917 0 011.296-1.296l2.974 2.974 5.771-6.596a.914.914 0 011.295-.087c.381.334.42.912.086 1.293l-6.417 7.333a.924.924 0 01-.66.314h-.03zm-12.833-.001H4.583a2.753 2.753 0 01-2.75-2.75V13.75c0-.506.411-.917.917-.917h31.167c.506 0 .916.41.916.917v3.776a.917.917 0 01-1.833 0v-2.86H3.667v19.25c0 .505.41.917.916.917h12.834a.917.917 0 010 1.833z"/><path d="M22.917 20.166H13.75a.917.917 0 010-1.833h9.167a.917.917 0 010 1.833zm12.833-5.499H.917A.917.917 0 010 13.75V6.417C0 5.91.41 5.5.917 5.5H35.75c.506 0 .917.41.917.917v7.333a.918.918 0 01-.917.917zM1.833 12.833h33v-5.5h-33v5.5z"/><path d="M35.75 7.333a.92.92 0 01-.65-.267l-5.23-5.233H6.796l-5.23 5.233A.917.917 0 01.269 5.77l5.5-5.5A.91.91 0 016.417 0H30.25a.92.92 0 01.649.268l5.5 5.5a.917.917 0 01-.65 1.565z"/></g><defs><clipPath id="clip0"><path fill="#fff" d="M0 0h44v44H0z"/></clipPath></defs></svg>
